X:1
T:Hodie beata Virgo Maria - Costantini
T:#
%%score [ 1 2 3 4 ]
L:1/8
Q:1/4=200
M:none
K:F
V:1 treble nm="Soprano" snm="S"
V:2 treble nm="Alto" snm="A"
V:3 treble-8 nm="Tenor" snm="T"
V:4 bass nm="Bass" snm="B"
V:1
"^Hodie beata Virgo Maria""^Fabio Costantini\n(c.1575-c.1644)" z16 | z16 | z16 | c12 c4 | %4
w: |||Ho- di-|
 c8 z4 F4 | (A2 G2 A2 B2 c4) A4 |[M:4/2] B8 A4 F4 | (A8 G8) | A8 z8 | z4 (c4 d2 c2 d2 e2 | %10
w: e be-|a\- * * * * ta|Vir- go Ma-|ri\- *|a,|be- a\- * * *|
 f4) d4 c4 (B4- | B2 A2 A2 GF G8-) | G4 (c6 =BA B4) | (c6 _BA G8) | A8 z4 c4- | c4 c4 c8 | %16
w: * ta Vir- go||* Ma\- * * *|ri\- * * *|a, ho\-|* di- e|
 z4 F4 (A2 G2 A2 B2 | c4) A4 B8 | A4 c8 =B4 | c8 z8 | z16 | z8 z4 c4- | c2 c2 c4 A8 | F4 B8 A4 | %24
w: be- a\- * * *|* ta Vir-|go Ma- ri-|a||pu\-|* e- rum Je-|sum prae- sen-|
 B8 A8 | z16 | z16 | z8 z4 c4- | c2 c2 c4 A8 | F4 B8 A4 | B8 A4 F4 | G8 A8- | A8 z8 | z16 | z16 | %35
w: ta- vit,|||pu\-|* e- rum Je-|sum prae- sen-|ta- vit in|tem- plo,||||
 z4 F4 c6 c2 | c4 A4 B4 G4 | c6 B2 A4 c4 | c8 z4 c4 | d8 c4 c4- | c4 B4 A4 (d4- | d2 c2 c8 =B4) | %42
w: et Si- me-|on re- ple- tus|Spi- ri- tu San-|cto, re-|ple- tus Spi\-|* ri- tu San\-||
 c8 z8 | z16 | z8 z4 c4 | d4 A4 B8 | G4 B4 A4 A4 | A8 F8 | z16 | z8 z4 c4 | d4 A4 B8 | %51
w: cto||ac-|ce- pit e-|um in ul- nas|su- as,||ac-|ce- pit e-|
 G4 B4 A4 F4 | G8 (A6 B2) | c8 z8 | z16 | z16 | z16 | z8 z4 f4 | e4 f4 d8 | c4 (f6 ed e4) | %60
w: um in ul- nas|su- as, *|||||et|be- ne- di-|xit De\- * * *|
 f4 (c6 B2 A4- | A4) G4 (c2 B2 A2 B2 | c8) c4 c4- | c4 c4 F8 | G4 c4 =B4 c4 | A8 G4 c4- | %66
w: um in * *|* ae- ter\- * * *|* num, in|* ae- ter-|num, et be- ne-|di- xit De\-|
 c4 =B4 (c2 _B2 A2 G2 |[Q:1/4=198] A4)[Q:1/4=196] =B4[Q:1/4=193] (c8 | %68
w: * um in * * *|* ae- ter\-|
[Q:1/4=191] _B4[Q:1/4=189] A2[Q:1/4=188] G2[Q:1/4=186] F8 |[Q:1/4=180] c16) |[Q:1/4=173] A16 |] %71
w: ||num.|
V:2
 F12 F4 | F8 z4 C4 | (E2 D2 E2 F2 G4) E4 | F8 E4 C4 | (E8 D8) | C8 z4 C4 |[M:4/2] D4 E4 F4 D4 | %7
w: Ho- di-|e be-|a\- * * * * ta|Vir- go Ma-|ri\- *|a, be-|a- ta Vir- go|
 C4 (F6 ED E4 | F8) C8 | z8 F8- | F4 F4 F8 | z4 C4 (E2 D2 E2 F2) | G4 E4 F2 D2 F4- | %13
w: Ma- ri\- * * *|* a,|ho\-|* di- e|be- a\- * * *|* ta Vir- go Ma\-|
 F4 (E2 D2 E8) | F16 | z4 A4 G4 A4 | F8 C4 F4 | F8 B,8 | z8 z4 G4- | G2 G2 G4 E8 | C4 F8 E4 | %21
w: * ri\- * *|a,|be- a- ta|Vir- go Ma-|ri- a|pu\-|* e- rum Je-|sum prae- sen-|
 (G6 F2 E8) | C8 (F6 E2 | D2 C2 B,2 C2 D2 E2 F4-) | F4 E4 F8 | z4 F6 F2 F4 | D8 B,4 F4- | %27
w: ta\- * *|vit in *||* tem- plo,|pu- e- rum|Je- sum prae\-|
 F4 D4 G8 | A4 E4 (F6 E2) | D8 C4 F4 | (D4 G6 F2 F4- | F4 E4) F8- | F8 z8 | z16 | C8 F6 F2 | %35
w: * sen- ta-|vit in tem\- *|* plo, in|tem\- * * *|* * plo,|||et Si- me-|
 F4 D4 E4 C4- | C4 D8 E4- | E4 C4 (F2 G2 A2 F2) | G8 (A6 G2 | F4) G4 E4 A4- | (A4 G4 A8) | G16 | %42
w: on re- ple- tus|* Spi- ri\-|* tu San\- * * *|cto, Spi\- *|* ri- tu San\-||cto|
 z4 G4 A4 E4 | F8 D4 F4 | E4 D4 (F4 E4 | D2 E2 F8 E2 D2) | (E2 F4 E2) F8- | F8 z4 F4 | G4 D4 F8 | %49
w: ac- ce- pit|e- um in|ul- nas su\- *||* * * as,|* ac-|ce- pit e-|
 D4 G4 (A2 G2 F2 E2 | D4) F4 D8 | E4 (G6 F2 F4-) | (F4 E4) F4 A4 | G4 A4 F8- | F8 B,8 | z16 | %56
w: um in ul\- * * *|* nas su-|as, su\- * *|* * as, in|ul- nas su\-|* as,||
 z4 B4 A4 B4 | G8 A4 c4- | c4 A4 B4 G4 | (A4 G2 F2 B8) | A16 | z4 B4 A6 F2 | G8 A4 F4 | %63
w: et be- ne-|di- xit De\-|* um in ae-|ter\- * * *|num,|et be- ne-|di- xit De-|
 G4 (A6 G2 F2 ED) | E4 C4 (D4 C4) | C4 C4 z8 | F8 E4 F4 | D8 C8 | F12 D4 | E4 F8 E4 | F16 |] %71
w: um in * * * *|* ae- ter\- *|* num,|et be- ne-|di- xit|De- um|in ae- ter-|num.|
V:3
 z16 | z8 c8- | c4 c4 c8 | z4 F4 (A2 G2 A2 B2 | c4) A4 B8 | A4 F4 A8 | %6
w: |Ho\-|* di- e|be- a\- * * *|* ta Vir-|go Ma- ri\-|
[M:4/2][K:treble-8] G8 F4 B4 | A4 F4 c8 | c4 c4 (A2 G2 A2 B2 | c4) A4 B8 | A12 d4 | c16- | c8 F8 | %13
w: * a, Vir-|go Ma- ri-|a, be- a\- * * *|* ta Vir-|go Ma-|ri\-|* a,|
 z4 c8 c4 | c8 z4 F4 | (A2 G2 A2 B2 c4) A4 | B8 A4 d4 | c2 c2 f4 d4 e4 | (f2 e2 d2 c2 d8) | %19
w: ho- di-|e be-|a\- * * * * ta|Vir- go Ma-|ri- a, Vir- go Ma-|ri\- * * * *|
 e4 c6 c2 c4 | A8 F4 c4- | c4 =B4 (c6 _B2 | A8) F8 | (B6 A2 G4 F4) | G8 (F6 G2 | A8) z4 f4- | %26
w: a pu- e- rum|Je- sum prae\-|* sen- ta\- *|* vit|in * * *|tem- plo, *|* pu\-|
 f2 f2 f4 d8 | B4 f8 e4 | f4 c4 d4 A4 | B8 (F8 | G2 A2 B2 c2 d8) | c8 c8 | z4 F4 c6 c2 | %33
w: * e- rum Je-|sum prae- sen-|ta- vit in tem-|plo, in||tem- plo,|et Si- me-|
 c4 A4 B4 G4- | G4 c8 B2 A2 | (B2 A2 A2 GF G8) | F4 F4 G8 | A8 F4 (f4- | f2 ed e8) (f2 e2 | %39
w: on re- ple- tus|* Spi- ri- tu|San\- * * * * *|cto, et Si-|me- on re\-|* * * * ple\- *|
 d2 c2 B4) c8 | d8 f4 f4 | (e8 d8) | e8 z4 c4 | d4 A4 B8 | G4 B4 (A2 B2 c2 A2 | B4) F4 G8- | %46
w: * * * tus|Spi- ri- tu|San\- *|cto ac-|ce- pit e-|um in ul\- * * *|* nas su\-|
 G8 F8 | z4 f4 d4 d4 | (_e2 d2 d2 cB c2 A2 c4- | c4 B4) c4 A4 | B4 F4 (G2 A2 B2 G2 | c4 B2 c2 d8) | %52
w: * as|ac- ce- pit|e\- * * * * * * *|* * um in|ul- nas su\- * * *||
 c8 F4 f4 | e4 f4 d8 | c4 f8 e4 | (f2 e2 d2 e2 f2 g2 a2 f2) | (g4 f2 e2 f2 d2 f4- | %57
w: * as, et|be- ne- di-|xit De- um|in * * * * * * *|ae\- * * * * *|
 f4 e4) (f6 ed) | (c4 d4) (B2 c2 d2 e2 | f8) z8 | z4 f4 e4 f4 | d8 c4 f4- | f4 e4 f4 c4 | %63
w: * * ter\- * *|* * num, * * *||et be- ne-|di- xit De\-|* um in ae-|
 (e4 f6 e2 d4) | (c4 A4 G4 A4 | F2 G2 A2 B2 c8) | F4 f4 g4 c4 | f6 f2 e4 A4 | (d4 c2 B2 A4) B4 | %69
w: ter\- * * *|||num, et be- ne-|di- xit De- um|in * * * ae-|
 (A4 G2 F2 G8) | F16 |] %71
w: ter\- * * *|num.|
V:4
 z16 | z16 | z16 | z16 | z16 | z16 |[M:4/2] z16 | z16 | F,12 F,4 | F,8 z4 B,,4 | %10
w: ||||||||Ho- di-|e be-|
 (D,2 C,2 D,2 E,2 F,4) D,4 | F,8 E,4 C,4 | (E,8 D,8) | C,8 z8 | F,8 (A,2 G,2 A,2 B,2 | %15
w: a\- * * * * ta|Vir- go Ma-|ri\- *|a,|be- a- * * *|
 C4) F,4 E,4 F,4 | (B,,2 C,2 D,2 E,2 F,6 G,2 | A,4) F,4 G,4 G,4 | F,4 A,4 G,8 | C,8 z8 | z16 | %21
w: * ta Vir- go|Ma\- * * * * *|* ri- a, Vir-|go Ma- ri-|a||
 z16 | z16 | z16 | z8 z4 F,4- | F,2 F,2 F,4 D,8 | B,,4 B,8 B,4 | D8 C4 C4 | A,8 F,8 | z16 | z16 | %31
w: |||pu\-|* e- rum Je-|sum prae- sen-|ta- vit in|tem- plo,|||
 z4 C,4 F,6 F,2 | F,4 D,4 E,4 C,4 | F,6 E,2 D,4 (E,4- | E,4 D,2 C,2 D,8-) | D,8 C,8 | z16 | %37
w: et Si- me-|on re- ple- tus|Spi- ri- tu San\-||* cto,||
 z8 z4 F,4 | C6 C2 C4 A,4 | B,4 G,4 (A,6 G,2) | F,4 G,4 D,8 | (E,6 F,2 G,8) | C,16 | z16 | z16 | %45
w: et|Si- me- on re-|ple- tus Spi\- *|* ri- tu|San\- * *|cto|||
 z16 | z8 z4 C4 | D4 A,4 B,8 | G,4 B,4 A,4 F,4 | G,8 F,8 | z16 | z16 | z16 | z8 z4 B,4 | %54
w: |ac-|ce- pit e-|um in ul- nas|su- as,||||et|
 A,4 B,4 G,8 | F,4 B,8 A,4 | (B,6 C2 D4) B,4 | C8 F,8 | z8 z4 B,4 | A,4 B,4 G,8 | %60
w: be- ne- di-|xit De- um|in * * ae-|ter- num,|et|be- ne- di-|
 (F,6 G,2 A,4) F,4- | F,4 G,4 A,4 D4 | C8 F,8 | z16 | z16 | z4 F,4 E,4 F,4 | D,8 C,4 F,4- | %67
w: xit * * De\-|* um in ae-|ter- num,|||et be- ne-|di- xit De\-|
 F,4 D,4 E,4 F,4 | (D,16 | C,16) | F,16 |] %71
w: * um in ae-|ter\-||num.|

